
;( Generated on: 2013-02-08 16:23:21 )
;(Initialize)
G90 ; use absolute coordinates
G21 ; set units to millimeters
G28 ; home all axes


;(Start here)

G0 F200
G0 X5.413 Y2.243
M52
G1 F20
G1 X5.413 Y2.243
G1 X5.399 Y2.182
G1 X5.360 Y2.134
G1 X5.304 Y2.107
G1 X5.242 Y2.107
G1 X5.186 Y2.134
G1 X5.147 Y2.182
G1 X5.133 Y2.243
G1 X5.133 Y2.863
G1 X5.147 Y2.923
G1 X5.186 Y2.972
G1 X5.242 Y2.999
G1 X5.304 Y2.999
G1 X5.360 Y2.972
G1 X5.399 Y2.923
G1 X5.413 Y2.863
G1 X5.413 Y2.243
M53

G0 F200
G0 X5.634 Y2.863
M52
G1 F20
G1 X5.634 Y2.863
G1 X5.648 Y2.923
G1 X5.686 Y2.972
G1 X5.742 Y2.999
G1 X5.805 Y2.999
G1 X5.861 Y2.972
G1 X5.899 Y2.923
G1 X5.913 Y2.863
G1 X5.913 Y2.243
G1 X5.899 Y2.182
G1 X5.861 Y2.134
G1 X5.805 Y2.107
G1 X5.742 Y2.107
G1 X5.686 Y2.134
G1 X5.648 Y2.182
G1 X5.634 Y2.243
G1 X5.634 Y2.863
M53

G0 F200
G0 X6.413 Y2.243
M52
G1 F20
G1 X6.413 Y2.243
G1 X6.400 Y2.182
G1 X6.361 Y2.134
G1 X6.305 Y2.107
G1 X6.243 Y2.107
G1 X6.187 Y2.134
G1 X6.148 Y2.182
G1 X6.134 Y2.243
G1 X6.134 Y2.863
G1 X6.148 Y2.923
G1 X6.187 Y2.972
G1 X6.243 Y2.999
G1 X6.305 Y2.999
G1 X6.361 Y2.972
G1 X6.400 Y2.923
G1 X6.413 Y2.863
G1 X6.413 Y2.243
M53

G0 F200
G0 X6.634 Y2.863
M52
G1 F20
G1 X6.634 Y2.863
G1 X6.648 Y2.923
G1 X6.687 Y2.972
G1 X6.743 Y2.999
G1 X6.805 Y2.999
G1 X6.861 Y2.972
G1 X6.900 Y2.923
G1 X6.914 Y2.863
G1 X6.914 Y2.243
G1 X6.900 Y2.182
G1 X6.861 Y2.134
G1 X6.805 Y2.107
G1 X6.743 Y2.107
G1 X6.687 Y2.134
G1 X6.648 Y2.182
G1 X6.634 Y2.243
G1 X6.634 Y2.863
M53

G0 F200
G0 X7.414 Y2.243
M52
G1 F20
G1 X7.414 Y2.243
G1 X7.400 Y2.182
G1 X7.362 Y2.134
G1 X7.306 Y2.107
G1 X7.243 Y2.107
G1 X7.187 Y2.134
G1 X7.149 Y2.182
G1 X7.135 Y2.243
G1 X7.135 Y2.863
G1 X7.149 Y2.923
G1 X7.187 Y2.972
G1 X7.243 Y2.999
G1 X7.306 Y2.999
G1 X7.362 Y2.972
G1 X7.400 Y2.923
G1 X7.414 Y2.863
G1 X7.414 Y2.243
M53

G0 F200
G0 X7.414 Y4.841
M52
G1 F20
G1 X7.414 Y4.841
G1 X7.400 Y4.781
G1 X7.362 Y4.732
G1 X7.306 Y4.705
G1 X7.243 Y4.705
G1 X7.187 Y4.732
G1 X7.149 Y4.781
G1 X7.135 Y4.841
G1 X7.135 Y5.461
G1 X7.149 Y5.522
G1 X7.187 Y5.570
G1 X7.243 Y5.597
G1 X7.306 Y5.597
G1 X7.362 Y5.570
G1 X7.400 Y5.522
G1 X7.414 Y5.461
G1 X7.414 Y4.841
M53

G0 F200
G0 X6.634 Y5.461
M52
G1 F20
G1 X6.634 Y5.461
G1 X6.648 Y5.522
G1 X6.687 Y5.570
G1 X6.743 Y5.597
G1 X6.805 Y5.597
G1 X6.861 Y5.570
G1 X6.900 Y5.522
G1 X6.914 Y5.461
G1 X6.914 Y4.841
G1 X6.900 Y4.781
G1 X6.861 Y4.732
G1 X6.805 Y4.705
G1 X6.743 Y4.705
G1 X6.687 Y4.732
G1 X6.648 Y4.781
G1 X6.634 Y4.841
G1 X6.634 Y5.461
M53

G0 F200
G0 X6.413 Y4.841
M52
G1 F20
G1 X6.413 Y4.841
G1 X6.400 Y4.781
G1 X6.361 Y4.732
G1 X6.305 Y4.705
G1 X6.243 Y4.705
G1 X6.187 Y4.732
G1 X6.148 Y4.781
G1 X6.134 Y4.841
G1 X6.134 Y5.461
G1 X6.148 Y5.522
G1 X6.187 Y5.570
G1 X6.243 Y5.597
G1 X6.305 Y5.597
G1 X6.361 Y5.570
G1 X6.400 Y5.522
G1 X6.413 Y5.461
G1 X6.413 Y4.841
M53

G0 F200
G0 X5.634 Y5.461
M52
G1 F20
G1 X5.634 Y5.461
G1 X5.648 Y5.522
G1 X5.686 Y5.570
G1 X5.742 Y5.597
G1 X5.805 Y5.597
G1 X5.861 Y5.570
G1 X5.899 Y5.522
G1 X5.913 Y5.461
G1 X5.913 Y4.841
G1 X5.899 Y4.781
G1 X5.861 Y4.732
G1 X5.805 Y4.705
G1 X5.742 Y4.705
G1 X5.686 Y4.732
G1 X5.648 Y4.781
G1 X5.634 Y4.841
G1 X5.634 Y5.461
M53

G0 F200
G0 X5.413 Y4.841
M52
G1 F20
G1 X5.413 Y4.841
G1 X5.399 Y4.781
G1 X5.360 Y4.732
G1 X5.304 Y4.705
G1 X5.242 Y4.705
G1 X5.186 Y4.732
G1 X5.147 Y4.781
G1 X5.133 Y4.841
G1 X5.133 Y5.461
G1 X5.147 Y5.522
G1 X5.186 Y5.570
G1 X5.242 Y5.597
G1 X5.304 Y5.597
G1 X5.360 Y5.570
G1 X5.399 Y5.522
G1 X5.413 Y5.461
G1 X5.413 Y4.841
M53

G0 F200
G0 X5.274 Y3.254
M52
G1 F20
G1 X5.274 Y3.254
G1 X5.274 Y4.453
G1 X7.273 Y4.453
G1 X7.273 Y3.254
G1 X5.274 Y3.254
M53

G0 F200
G0 X1.463 Y2.134
M52
G1 F20
G1 X1.463 Y2.134
G1 X1.463 Y3.033
G1 X2.164 Y3.033
G1 X2.164 Y2.134
G1 X1.463 Y2.134
M53

G0 F200
G0 X2.764 Y2.134
M52
G1 F20
G1 X2.764 Y2.134
G1 X2.764 Y3.033
G1 X3.465 Y3.033
G1 X3.465 Y2.134
G1 X2.764 Y2.134
M53

G0 F200
G0 X2.764 Y3.404
M52
G1 F20
G1 X2.764 Y3.404
G1 X2.764 Y4.303
G1 X3.465 Y4.303
G1 X3.465 Y3.404
G1 X2.764 Y3.404
M53

G0 F200
G0 X1.463 Y3.404
M52
G1 F20
G1 X1.463 Y3.404
G1 X1.463 Y4.303
G1 X2.164 Y4.303
G1 X2.164 Y3.404
G1 X1.463 Y3.404
M53

G0 F200
G0 X1.463 Y4.674
M52
G1 F20
G1 X1.463 Y4.674
G1 X1.463 Y5.573
G1 X2.164 Y5.573
G1 X2.164 Y4.674
G1 X1.463 Y4.674
M53

G0 F200
G0 X2.764 Y4.674
M52
G1 F20
G1 X2.764 Y4.674
G1 X2.764 Y5.573
G1 X3.465 Y5.573
G1 X3.465 Y4.674
G1 X2.764 Y4.674
M53

G0 F200

;( End Code )
M53 ; turn off laser
G28 ; home all axes
M84 ; disable motors
