
;( Generated on: 2013-02-08 20:31:00 )
;(Initialize)
G90 ; use absolute coordinates
G21 ; set units to millimeters
G28 ; home all axes


;(Start here)

G0 F200
G0 X10.081 Y3.477
M52
G1 F20
G1 X10.081 Y3.477
G1 X10.021 Y3.491
G1 X9.972 Y3.530
G1 X9.945 Y3.586
G1 X9.945 Y3.648
G1 X9.972 Y3.704
G1 X10.021 Y3.743
G1 X10.081 Y3.757
G1 X10.625 Y3.757
G1 X10.685 Y3.743
G1 X10.734 Y3.704
G1 X10.761 Y3.648
G1 X10.761 Y3.586
G1 X10.734 Y3.530
G1 X10.685 Y3.491
G1 X10.625 Y3.477
G1 X10.081 Y3.477
M53

G0 F200
G0 X10.625 Y4.255
M52
G1 F20
G1 X10.625 Y4.255
G1 X10.685 Y4.241
G1 X10.734 Y4.202
G1 X10.761 Y4.146
G1 X10.761 Y4.084
G1 X10.734 Y4.028
G1 X10.685 Y3.989
G1 X10.625 Y3.975
G1 X10.081 Y3.975
G1 X10.021 Y3.989
G1 X9.972 Y4.028
G1 X9.945 Y4.084
G1 X9.945 Y4.146
G1 X9.972 Y4.202
G1 X10.021 Y4.241
G1 X10.081 Y4.255
G1 X10.625 Y4.255
M53

G0 F200
G0 X10.081 Y4.475
M52
G1 F20
G1 X10.081 Y4.475
G1 X10.021 Y4.489
G1 X9.972 Y4.528
G1 X9.945 Y4.584
G1 X9.945 Y4.646
G1 X9.972 Y4.702
G1 X10.021 Y4.741
G1 X10.081 Y4.755
G1 X10.625 Y4.755
G1 X10.685 Y4.741
G1 X10.734 Y4.702
G1 X10.761 Y4.646
G1 X10.761 Y4.584
G1 X10.734 Y4.528
G1 X10.685 Y4.489
G1 X10.625 Y4.475
G1 X10.081 Y4.475
M53

G0 F200
G0 X10.625 Y5.255
M52
G1 F20
G1 X10.625 Y5.255
G1 X10.685 Y5.241
G1 X10.734 Y5.203
G1 X10.761 Y5.147
G1 X10.761 Y5.084
G1 X10.734 Y5.028
G1 X10.685 Y4.990
G1 X10.625 Y4.976
G1 X10.081 Y4.976
G1 X10.021 Y4.990
G1 X9.972 Y5.028
G1 X9.945 Y5.084
G1 X9.945 Y5.147
G1 X9.972 Y5.203
G1 X10.021 Y5.241
G1 X10.081 Y5.255
G1 X10.625 Y5.255
M53

G0 F200
G0 X10.081 Y5.476
M52
G1 F20
G1 X10.081 Y5.476
G1 X10.021 Y5.490
G1 X9.972 Y5.529
G1 X9.945 Y5.585
G1 X9.945 Y5.647
G1 X9.972 Y5.703
G1 X10.021 Y5.742
G1 X10.081 Y5.756
G1 X10.625 Y5.756
G1 X10.685 Y5.742
G1 X10.734 Y5.703
G1 X10.761 Y5.647
G1 X10.761 Y5.585
G1 X10.734 Y5.529
G1 X10.685 Y5.490
G1 X10.625 Y5.476
G1 X10.081 Y5.476
M53

G0 F200
G0 X10.625 Y6.256
M52
G1 F20
G1 X10.625 Y6.256
G1 X10.685 Y6.242
G1 X10.734 Y6.203
G1 X10.761 Y6.147
G1 X10.761 Y6.085
G1 X10.734 Y6.029
G1 X10.685 Y5.990
G1 X10.625 Y5.977
G1 X10.081 Y5.977
G1 X10.021 Y5.990
G1 X9.972 Y6.029
G1 X9.945 Y6.085
G1 X9.945 Y6.147
G1 X9.972 Y6.203
G1 X10.021 Y6.242
G1 X10.081 Y6.256
G1 X10.625 Y6.256
M53

G0 F200
G0 X10.081 Y6.477
M52
G1 F20
G1 X10.081 Y6.477
G1 X10.021 Y6.491
G1 X9.972 Y6.530
G1 X9.945 Y6.586
G1 X9.945 Y6.648
G1 X9.972 Y6.704
G1 X10.021 Y6.743
G1 X10.081 Y6.756
G1 X10.625 Y6.756
G1 X10.685 Y6.743
G1 X10.734 Y6.704
G1 X10.761 Y6.648
G1 X10.761 Y6.586
G1 X10.734 Y6.530
G1 X10.685 Y6.491
G1 X10.625 Y6.477
G1 X10.081 Y6.477
M53

G0 F200
G0 X10.625 Y7.257
M52
G1 F20
G1 X10.625 Y7.257
G1 X10.685 Y7.243
G1 X10.734 Y7.204
G1 X10.761 Y7.148
G1 X10.761 Y7.086
G1 X10.734 Y7.030
G1 X10.685 Y6.991
G1 X10.625 Y6.977
G1 X10.081 Y6.977
G1 X10.021 Y6.991
G1 X9.972 Y7.030
G1 X9.945 Y7.086
G1 X9.945 Y7.148
G1 X9.972 Y7.204
G1 X10.021 Y7.243
G1 X10.081 Y7.257
G1 X10.625 Y7.257
M53

G0 F200
G0 X10.081 Y7.475
M52
G1 F20
G1 X10.081 Y7.475
G1 X10.021 Y7.489
G1 X9.972 Y7.528
G1 X9.945 Y7.584
G1 X9.945 Y7.646
G1 X9.972 Y7.702
G1 X10.021 Y7.741
G1 X10.081 Y7.755
G1 X10.625 Y7.755
G1 X10.685 Y7.741
G1 X10.734 Y7.702
G1 X10.761 Y7.646
G1 X10.761 Y7.584
G1 X10.734 Y7.528
G1 X10.685 Y7.489
G1 X10.625 Y7.475
G1 X10.081 Y7.475
M53

G0 F200
G0 X10.625 Y8.255
M52
G1 F20
G1 X10.625 Y8.255
G1 X10.685 Y8.241
G1 X10.734 Y8.202
G1 X10.761 Y8.146
G1 X10.761 Y8.084
G1 X10.734 Y8.028
G1 X10.685 Y7.989
G1 X10.625 Y7.976
G1 X10.081 Y7.976
G1 X10.021 Y7.989
G1 X9.972 Y8.028
G1 X9.945 Y8.084
G1 X9.945 Y8.146
G1 X9.972 Y8.202
G1 X10.021 Y8.241
G1 X10.081 Y8.255
G1 X10.625 Y8.255
M53

G0 F200
G0 X10.081 Y8.476
M52
G1 F20
G1 X10.081 Y8.476
G1 X10.021 Y8.490
G1 X9.972 Y8.529
G1 X9.945 Y8.585
G1 X9.945 Y8.647
G1 X9.972 Y8.703
G1 X10.021 Y8.742
G1 X10.081 Y8.755
G1 X10.625 Y8.755
G1 X10.685 Y8.742
G1 X10.734 Y8.703
G1 X10.761 Y8.647
G1 X10.761 Y8.585
G1 X10.734 Y8.529
G1 X10.685 Y8.490
G1 X10.625 Y8.476
G1 X10.081 Y8.476
M53

G0 F200
G0 X10.625 Y9.256
M52
G1 F20
G1 X10.625 Y9.256
G1 X10.685 Y9.242
G1 X10.734 Y9.203
G1 X10.761 Y9.147
G1 X10.761 Y9.085
G1 X10.734 Y9.029
G1 X10.685 Y8.990
G1 X10.625 Y8.976
G1 X10.081 Y8.976
G1 X10.021 Y8.990
G1 X9.972 Y9.029
G1 X9.945 Y9.085
G1 X9.945 Y9.147
G1 X9.972 Y9.203
G1 X10.021 Y9.242
G1 X10.081 Y9.256
G1 X10.625 Y9.256
M53

G0 F200
G0 X10.081 Y9.477
M52
G1 F20
G1 X10.081 Y9.477
G1 X10.021 Y9.491
G1 X9.972 Y9.529
G1 X9.945 Y9.585
G1 X9.945 Y9.648
G1 X9.972 Y9.704
G1 X10.021 Y9.742
G1 X10.081 Y9.756
G1 X10.625 Y9.756
G1 X10.685 Y9.742
G1 X10.734 Y9.704
G1 X10.761 Y9.648
G1 X10.761 Y9.585
G1 X10.734 Y9.529
G1 X10.685 Y9.491
G1 X10.625 Y9.477
G1 X10.081 Y9.477
M53

G0 F200
G0 X10.625 Y10.257
M52
G1 F20
G1 X10.625 Y10.257
G1 X10.685 Y10.243
G1 X10.734 Y10.204
G1 X10.761 Y10.148
G1 X10.761 Y10.086
G1 X10.734 Y10.030
G1 X10.685 Y9.991
G1 X10.625 Y9.977
G1 X10.081 Y9.977
G1 X10.021 Y9.991
G1 X9.972 Y10.030
G1 X9.945 Y10.086
G1 X9.945 Y10.148
G1 X9.972 Y10.204
G1 X10.021 Y10.243
G1 X10.081 Y10.257
G1 X10.625 Y10.257
M53

G0 F200
G0 X10.081 Y10.477
M52
G1 F20
G1 X10.081 Y10.477
G1 X10.021 Y10.491
G1 X9.972 Y10.530
G1 X9.945 Y10.586
G1 X9.945 Y10.648
G1 X9.972 Y10.704
G1 X10.021 Y10.743
G1 X10.081 Y10.757
G1 X10.625 Y10.757
G1 X10.685 Y10.743
G1 X10.734 Y10.704
G1 X10.761 Y10.648
G1 X10.761 Y10.586
G1 X10.734 Y10.530
G1 X10.685 Y10.491
G1 X10.625 Y10.477
G1 X10.081 Y10.477
M53

G0 F200
G0 X10.625 Y11.255
M52
G1 F20
G1 X10.625 Y11.255
G1 X10.685 Y11.241
G1 X10.734 Y11.202
G1 X10.761 Y11.146
G1 X10.761 Y11.084
G1 X10.734 Y11.028
G1 X10.685 Y10.989
G1 X10.625 Y10.975
G1 X10.081 Y10.975
G1 X10.021 Y10.989
G1 X9.972 Y11.028
G1 X9.945 Y11.084
G1 X9.945 Y11.146
G1 X9.972 Y11.202
G1 X10.021 Y11.241
G1 X10.081 Y11.255
G1 X10.625 Y11.255
M53

G0 F200
G0 X11.105 Y11.455
M52
G1 F20
G1 X11.105 Y11.455
G1 X11.091 Y11.395
G1 X11.052 Y11.346
G1 X10.996 Y11.319
G1 X10.934 Y11.319
G1 X10.878 Y11.346
G1 X10.839 Y11.395
G1 X10.825 Y11.455
G1 X10.825 Y11.999
G1 X10.839 Y12.060
G1 X10.878 Y12.108
G1 X10.934 Y12.135
G1 X10.996 Y12.135
G1 X11.052 Y12.108
G1 X11.091 Y12.060
G1 X11.105 Y11.999
G1 X11.105 Y11.455
M53

G0 F200
G0 X11.323 Y11.999
M52
G1 F20
G1 X11.323 Y11.999
G1 X11.337 Y12.060
G1 X11.376 Y12.108
G1 X11.432 Y12.135
G1 X11.494 Y12.135
G1 X11.550 Y12.108
G1 X11.589 Y12.060
G1 X11.603 Y11.999
G1 X11.603 Y11.455
G1 X11.589 Y11.395
G1 X11.550 Y11.346
G1 X11.494 Y11.319
G1 X11.432 Y11.319
G1 X11.376 Y11.346
G1 X11.337 Y11.395
G1 X11.323 Y11.455
G1 X11.323 Y11.999
M53

G0 F200
G0 X12.103 Y11.455
M52
G1 F20
G1 X12.103 Y11.455
G1 X12.089 Y11.395
G1 X12.051 Y11.346
G1 X11.994 Y11.319
G1 X11.932 Y11.319
G1 X11.876 Y11.346
G1 X11.838 Y11.395
G1 X11.824 Y11.455
G1 X11.824 Y11.999
G1 X11.838 Y12.060
G1 X11.876 Y12.108
G1 X11.932 Y12.135
G1 X11.994 Y12.135
G1 X12.051 Y12.108
G1 X12.089 Y12.060
G1 X12.103 Y11.999
G1 X12.103 Y11.455
M53

G0 F200
G0 X12.324 Y11.999
M52
G1 F20
G1 X12.324 Y11.999
G1 X12.338 Y12.060
G1 X12.377 Y12.108
G1 X12.433 Y12.135
G1 X12.495 Y12.135
G1 X12.551 Y12.108
G1 X12.590 Y12.060
G1 X12.603 Y11.999
G1 X12.603 Y11.455
G1 X12.590 Y11.395
G1 X12.551 Y11.346
G1 X12.495 Y11.319
G1 X12.433 Y11.319
G1 X12.377 Y11.346
G1 X12.338 Y11.395
G1 X12.324 Y11.455
G1 X12.324 Y11.999
M53

G0 F200
G0 X13.104 Y11.455
M52
G1 F20
G1 X13.104 Y11.455
G1 X13.090 Y11.395
G1 X13.051 Y11.346
G1 X12.995 Y11.319
G1 X12.933 Y11.319
G1 X12.877 Y11.346
G1 X12.838 Y11.395
G1 X12.824 Y11.455
G1 X12.824 Y11.999
G1 X12.838 Y12.060
G1 X12.877 Y12.108
G1 X12.933 Y12.135
G1 X12.995 Y12.135
G1 X13.051 Y12.108
G1 X13.090 Y12.060
G1 X13.104 Y11.999
G1 X13.104 Y11.455
M53

G0 F200
G0 X13.325 Y11.999
M52
G1 F20
G1 X13.325 Y11.999
G1 X13.339 Y12.060
G1 X13.377 Y12.108
G1 X13.433 Y12.135
G1 X13.496 Y12.135
G1 X13.552 Y12.108
G1 X13.590 Y12.060
G1 X13.604 Y11.999
G1 X13.604 Y11.455
G1 X13.590 Y11.395
G1 X13.552 Y11.346
G1 X13.496 Y11.319
G1 X13.433 Y11.319
G1 X13.377 Y11.346
G1 X13.339 Y11.395
G1 X13.325 Y11.455
G1 X13.325 Y11.999
M53

G0 F200
G0 X14.105 Y11.455
M52
G1 F20
G1 X14.105 Y11.455
G1 X14.091 Y11.395
G1 X14.052 Y11.346
G1 X13.996 Y11.319
G1 X13.934 Y11.319
G1 X13.878 Y11.346
G1 X13.839 Y11.395
G1 X13.825 Y11.455
G1 X13.825 Y11.999
G1 X13.839 Y12.060
G1 X13.878 Y12.108
G1 X13.934 Y12.135
G1 X13.996 Y12.135
G1 X14.052 Y12.108
G1 X14.091 Y12.060
G1 X14.105 Y11.999
G1 X14.105 Y11.455
M53

G0 F200
G0 X14.326 Y11.999
M52
G1 F20
G1 X14.326 Y11.999
G1 X14.339 Y12.060
G1 X14.378 Y12.108
G1 X14.434 Y12.135
G1 X14.496 Y12.135
G1 X14.552 Y12.108
G1 X14.591 Y12.060
G1 X14.605 Y11.999
G1 X14.605 Y11.455
G1 X14.591 Y11.395
G1 X14.552 Y11.346
G1 X14.496 Y11.319
G1 X14.434 Y11.319
G1 X14.378 Y11.346
G1 X14.339 Y11.395
G1 X14.326 Y11.455
G1 X14.326 Y11.999
M53

G0 F200
G0 X15.103 Y11.455
M52
G1 F20
G1 X15.103 Y11.455
G1 X15.089 Y11.395
G1 X15.050 Y11.346
G1 X14.994 Y11.319
G1 X14.932 Y11.319
G1 X14.876 Y11.346
G1 X14.837 Y11.395
G1 X14.823 Y11.455
G1 X14.823 Y11.999
G1 X14.837 Y12.060
G1 X14.876 Y12.108
G1 X14.932 Y12.135
G1 X14.994 Y12.135
G1 X15.050 Y12.108
G1 X15.089 Y12.060
G1 X15.103 Y11.999
G1 X15.103 Y11.455
M53

G0 F200
G0 X15.324 Y11.999
M52
G1 F20
G1 X15.324 Y11.999
G1 X15.338 Y12.060
G1 X15.376 Y12.108
G1 X15.432 Y12.135
G1 X15.495 Y12.135
G1 X15.551 Y12.108
G1 X15.589 Y12.060
G1 X15.603 Y11.999
G1 X15.603 Y11.455
G1 X15.589 Y11.395
G1 X15.551 Y11.346
G1 X15.495 Y11.319
G1 X15.432 Y11.319
G1 X15.376 Y11.346
G1 X15.338 Y11.395
G1 X15.324 Y11.455
G1 X15.324 Y11.999
M53

G0 F200
G0 X16.104 Y11.455
M52
G1 F20
G1 X16.104 Y11.455
G1 X16.090 Y11.395
G1 X16.051 Y11.346
G1 X15.995 Y11.319
G1 X15.933 Y11.319
G1 X15.877 Y11.346
G1 X15.838 Y11.395
G1 X15.824 Y11.455
G1 X15.824 Y11.999
G1 X15.838 Y12.060
G1 X15.877 Y12.108
G1 X15.933 Y12.135
G1 X15.995 Y12.135
G1 X16.051 Y12.108
G1 X16.090 Y12.060
G1 X16.104 Y11.999
G1 X16.104 Y11.455
M53

G0 F200
G0 X16.325 Y11.999
M52
G1 F20
G1 X16.325 Y11.999
G1 X16.338 Y12.060
G1 X16.377 Y12.108
G1 X16.433 Y12.135
G1 X16.495 Y12.135
G1 X16.551 Y12.108
G1 X16.590 Y12.060
G1 X16.604 Y11.999
G1 X16.604 Y11.455
G1 X16.590 Y11.395
G1 X16.551 Y11.346
G1 X16.495 Y11.319
G1 X16.433 Y11.319
G1 X16.377 Y11.346
G1 X16.338 Y11.395
G1 X16.325 Y11.455
G1 X16.325 Y11.999
M53

G0 F200
G0 X17.104 Y11.455
M52
G1 F20
G1 X17.104 Y11.455
G1 X17.091 Y11.395
G1 X17.052 Y11.346
G1 X16.996 Y11.319
G1 X16.934 Y11.319
G1 X16.878 Y11.346
G1 X16.839 Y11.395
G1 X16.825 Y11.455
G1 X16.825 Y11.999
G1 X16.839 Y12.060
G1 X16.878 Y12.108
G1 X16.934 Y12.135
G1 X16.996 Y12.135
G1 X17.052 Y12.108
G1 X17.091 Y12.060
G1 X17.104 Y11.999
G1 X17.104 Y11.455
M53

G0 F200
G0 X17.325 Y11.999
M52
G1 F20
G1 X17.325 Y11.999
G1 X17.339 Y12.060
G1 X17.378 Y12.108
G1 X17.434 Y12.135
G1 X17.496 Y12.135
G1 X17.552 Y12.108
G1 X17.591 Y12.060
G1 X17.605 Y11.999
G1 X17.605 Y11.455
G1 X17.591 Y11.395
G1 X17.552 Y11.346
G1 X17.496 Y11.319
G1 X17.434 Y11.319
G1 X17.378 Y11.346
G1 X17.339 Y11.395
G1 X17.325 Y11.455
G1 X17.325 Y11.999
M53

G0 F200
G0 X18.105 Y11.455
M52
G1 F20
G1 X18.105 Y11.455
G1 X18.091 Y11.395
G1 X18.053 Y11.346
G1 X17.997 Y11.319
G1 X17.934 Y11.319
G1 X17.878 Y11.346
G1 X17.840 Y11.395
G1 X17.826 Y11.455
G1 X17.826 Y11.999
G1 X17.840 Y12.060
G1 X17.878 Y12.108
G1 X17.934 Y12.135
G1 X17.997 Y12.135
G1 X18.053 Y12.108
G1 X18.091 Y12.060
G1 X18.105 Y11.999
G1 X18.105 Y11.455
M53

G0 F200
G0 X18.324 Y11.999
M52
G1 F20
G1 X18.324 Y11.999
G1 X18.337 Y12.060
G1 X18.376 Y12.108
G1 X18.432 Y12.135
G1 X18.494 Y12.135
G1 X18.550 Y12.108
G1 X18.589 Y12.060
G1 X18.603 Y11.999
G1 X18.603 Y11.455
G1 X18.589 Y11.395
G1 X18.550 Y11.346
G1 X18.494 Y11.319
G1 X18.432 Y11.319
G1 X18.376 Y11.346
G1 X18.337 Y11.395
G1 X18.324 Y11.455
G1 X18.324 Y11.999
M53

G0 F200
G0 X18.804 Y10.975
M52
G1 F20
G1 X18.804 Y10.975
G1 X18.743 Y10.989
G1 X18.694 Y11.028
G1 X18.667 Y11.084
G1 X18.667 Y11.146
G1 X18.694 Y11.202
G1 X18.743 Y11.241
G1 X18.804 Y11.255
G1 X19.347 Y11.255
G1 X19.408 Y11.241
G1 X19.456 Y11.202
G1 X19.483 Y11.146
G1 X19.483 Y11.084
G1 X19.456 Y11.028
G1 X19.408 Y10.989
G1 X19.347 Y10.975
G1 X18.804 Y10.975
M53

G0 F200
G0 X19.347 Y10.757
M52
G1 F20
G1 X19.347 Y10.757
G1 X19.408 Y10.743
G1 X19.456 Y10.704
G1 X19.483 Y10.648
G1 X19.483 Y10.586
G1 X19.456 Y10.530
G1 X19.408 Y10.491
G1 X19.347 Y10.477
G1 X18.804 Y10.477
G1 X18.743 Y10.491
G1 X18.694 Y10.530
G1 X18.667 Y10.586
G1 X18.667 Y10.648
G1 X18.694 Y10.704
G1 X18.743 Y10.743
G1 X18.804 Y10.757
G1 X19.347 Y10.757
M53

G0 F200
G0 X18.804 Y9.977
M52
G1 F20
G1 X18.804 Y9.977
G1 X18.743 Y9.991
G1 X18.694 Y10.030
G1 X18.667 Y10.086
G1 X18.667 Y10.148
G1 X18.694 Y10.204
G1 X18.743 Y10.243
G1 X18.804 Y10.257
G1 X19.347 Y10.257
G1 X19.408 Y10.243
G1 X19.456 Y10.204
G1 X19.483 Y10.148
G1 X19.483 Y10.086
G1 X19.456 Y10.030
G1 X19.408 Y9.991
G1 X19.347 Y9.977
G1 X18.804 Y9.977
M53

G0 F200
G0 X19.347 Y9.756
M52
G1 F20
G1 X19.347 Y9.756
G1 X19.408 Y9.742
G1 X19.456 Y9.704
G1 X19.483 Y9.648
G1 X19.483 Y9.585
G1 X19.456 Y9.529
G1 X19.408 Y9.491
G1 X19.347 Y9.477
G1 X18.804 Y9.477
G1 X18.743 Y9.491
G1 X18.694 Y9.529
G1 X18.667 Y9.585
G1 X18.667 Y9.648
G1 X18.694 Y9.704
G1 X18.743 Y9.742
G1 X18.804 Y9.756
G1 X19.347 Y9.756
M53

G0 F200
G0 X18.804 Y8.976
M52
G1 F20
G1 X18.804 Y8.976
G1 X18.743 Y8.990
G1 X18.694 Y9.029
G1 X18.667 Y9.085
G1 X18.667 Y9.147
G1 X18.694 Y9.203
G1 X18.743 Y9.242
G1 X18.804 Y9.256
G1 X19.347 Y9.256
G1 X19.408 Y9.242
G1 X19.456 Y9.203
G1 X19.483 Y9.147
G1 X19.483 Y9.085
G1 X19.456 Y9.029
G1 X19.408 Y8.990
G1 X19.347 Y8.976
G1 X18.804 Y8.976
M53

G0 F200
G0 X19.347 Y8.755
M52
G1 F20
G1 X19.347 Y8.755
G1 X19.408 Y8.742
G1 X19.456 Y8.703
G1 X19.483 Y8.647
G1 X19.483 Y8.585
G1 X19.456 Y8.529
G1 X19.408 Y8.490
G1 X19.347 Y8.476
G1 X18.804 Y8.476
G1 X18.743 Y8.490
G1 X18.694 Y8.529
G1 X18.667 Y8.585
G1 X18.667 Y8.647
G1 X18.694 Y8.703
G1 X18.743 Y8.742
G1 X18.804 Y8.755
G1 X19.347 Y8.755
M53

G0 F200
G0 X18.804 Y7.976
M52
G1 F20
G1 X18.804 Y7.976
G1 X18.743 Y7.989
G1 X18.694 Y8.028
G1 X18.667 Y8.084
G1 X18.667 Y8.146
G1 X18.694 Y8.202
G1 X18.743 Y8.241
G1 X18.804 Y8.255
G1 X19.347 Y8.255
G1 X19.408 Y8.241
G1 X19.456 Y8.202
G1 X19.483 Y8.146
G1 X19.483 Y8.084
G1 X19.456 Y8.028
G1 X19.408 Y7.989
G1 X19.347 Y7.976
G1 X18.804 Y7.976
M53

G0 F200
G0 X19.347 Y7.755
M52
G1 F20
G1 X19.347 Y7.755
G1 X19.408 Y7.741
G1 X19.456 Y7.702
G1 X19.483 Y7.646
G1 X19.483 Y7.584
G1 X19.456 Y7.528
G1 X19.408 Y7.489
G1 X19.347 Y7.475
G1 X18.804 Y7.475
G1 X18.743 Y7.489
G1 X18.694 Y7.528
G1 X18.667 Y7.584
G1 X18.667 Y7.646
G1 X18.694 Y7.702
G1 X18.743 Y7.741
G1 X18.804 Y7.755
G1 X19.347 Y7.755
M53

G0 F200
G0 X18.804 Y6.977
M52
G1 F20
G1 X18.804 Y6.977
G1 X18.743 Y6.991
G1 X18.694 Y7.030
G1 X18.667 Y7.086
G1 X18.667 Y7.148
G1 X18.694 Y7.204
G1 X18.743 Y7.243
G1 X18.804 Y7.257
G1 X19.347 Y7.257
G1 X19.408 Y7.243
G1 X19.456 Y7.204
G1 X19.483 Y7.148
G1 X19.483 Y7.086
G1 X19.456 Y7.030
G1 X19.408 Y6.991
G1 X19.347 Y6.977
G1 X18.804 Y6.977
M53

G0 F200
G0 X19.347 Y6.756
M52
G1 F20
G1 X19.347 Y6.756
G1 X19.408 Y6.743
G1 X19.456 Y6.704
G1 X19.483 Y6.648
G1 X19.483 Y6.586
G1 X19.456 Y6.530
G1 X19.408 Y6.491
G1 X19.347 Y6.477
G1 X18.804 Y6.477
G1 X18.743 Y6.491
G1 X18.694 Y6.530
G1 X18.667 Y6.586
G1 X18.667 Y6.648
G1 X18.694 Y6.704
G1 X18.743 Y6.743
G1 X18.804 Y6.756
G1 X19.347 Y6.756
M53

G0 F200
G0 X18.804 Y5.977
M52
G1 F20
G1 X18.804 Y5.977
G1 X18.743 Y5.990
G1 X18.694 Y6.029
G1 X18.667 Y6.085
G1 X18.667 Y6.147
G1 X18.694 Y6.203
G1 X18.743 Y6.242
G1 X18.804 Y6.256
G1 X19.347 Y6.256
G1 X19.408 Y6.242
G1 X19.456 Y6.203
G1 X19.483 Y6.147
G1 X19.483 Y6.085
G1 X19.456 Y6.029
G1 X19.408 Y5.990
G1 X19.347 Y5.977
G1 X18.804 Y5.977
M53

G0 F200
G0 X19.347 Y5.756
M52
G1 F20
G1 X19.347 Y5.756
G1 X19.408 Y5.742
G1 X19.456 Y5.703
G1 X19.483 Y5.647
G1 X19.483 Y5.585
G1 X19.456 Y5.529
G1 X19.408 Y5.490
G1 X19.347 Y5.476
G1 X18.804 Y5.476
G1 X18.743 Y5.490
G1 X18.694 Y5.529
G1 X18.667 Y5.585
G1 X18.667 Y5.647
G1 X18.694 Y5.703
G1 X18.743 Y5.742
G1 X18.804 Y5.756
G1 X19.347 Y5.756
M53

G0 F200
G0 X18.804 Y4.976
M52
G1 F20
G1 X18.804 Y4.976
G1 X18.743 Y4.990
G1 X18.694 Y5.028
G1 X18.667 Y5.084
G1 X18.667 Y5.147
G1 X18.694 Y5.203
G1 X18.743 Y5.241
G1 X18.804 Y5.255
G1 X19.347 Y5.255
G1 X19.408 Y5.241
G1 X19.456 Y5.203
G1 X19.483 Y5.147
G1 X19.483 Y5.084
G1 X19.456 Y5.028
G1 X19.408 Y4.990
G1 X19.347 Y4.976
G1 X18.804 Y4.976
M53

G0 F200
G0 X19.347 Y4.755
M52
G1 F20
G1 X19.347 Y4.755
G1 X19.408 Y4.741
G1 X19.456 Y4.702
G1 X19.483 Y4.646
G1 X19.483 Y4.584
G1 X19.456 Y4.528
G1 X19.408 Y4.489
G1 X19.347 Y4.475
G1 X18.804 Y4.475
G1 X18.743 Y4.489
G1 X18.694 Y4.528
G1 X18.667 Y4.584
G1 X18.667 Y4.646
G1 X18.694 Y4.702
G1 X18.743 Y4.741
G1 X18.804 Y4.755
G1 X19.347 Y4.755
M53

G0 F200
G0 X18.804 Y3.975
M52
G1 F20
G1 X18.804 Y3.975
G1 X18.743 Y3.989
G1 X18.694 Y4.028
G1 X18.667 Y4.084
G1 X18.667 Y4.146
G1 X18.694 Y4.202
G1 X18.743 Y4.241
G1 X18.804 Y4.255
G1 X19.347 Y4.255
G1 X19.408 Y4.241
G1 X19.456 Y4.202
G1 X19.483 Y4.146
G1 X19.483 Y4.084
G1 X19.456 Y4.028
G1 X19.408 Y3.989
G1 X19.347 Y3.975
G1 X18.804 Y3.975
M53

G0 F200
G0 X19.347 Y3.757
M52
G1 F20
G1 X19.347 Y3.757
G1 X19.408 Y3.743
G1 X19.456 Y3.704
G1 X19.483 Y3.648
G1 X19.483 Y3.586
G1 X19.456 Y3.530
G1 X19.408 Y3.491
G1 X19.347 Y3.477
G1 X18.804 Y3.477
G1 X18.743 Y3.491
G1 X18.694 Y3.530
G1 X18.667 Y3.586
G1 X18.667 Y3.648
G1 X18.694 Y3.704
G1 X18.743 Y3.743
G1 X18.804 Y3.757
G1 X19.347 Y3.757
M53

G0 F200
G0 X18.324 Y3.277
M52
G1 F20
G1 X18.324 Y3.277
G1 X18.337 Y3.337
G1 X18.376 Y3.386
G1 X18.432 Y3.413
G1 X18.494 Y3.413
G1 X18.550 Y3.386
G1 X18.589 Y3.337
G1 X18.603 Y3.277
G1 X18.603 Y2.733
G1 X18.589 Y2.672
G1 X18.550 Y2.624
G1 X18.494 Y2.597
G1 X18.432 Y2.597
G1 X18.376 Y2.624
G1 X18.337 Y2.672
G1 X18.324 Y2.733
G1 X18.324 Y3.277
M53

G0 F200
G0 X18.105 Y2.733
M52
G1 F20
G1 X18.105 Y2.733
G1 X18.091 Y2.672
G1 X18.053 Y2.624
G1 X17.997 Y2.597
G1 X17.934 Y2.597
G1 X17.878 Y2.624
G1 X17.840 Y2.672
G1 X17.826 Y2.733
G1 X17.826 Y3.277
G1 X17.840 Y3.337
G1 X17.878 Y3.386
G1 X17.934 Y3.413
G1 X17.997 Y3.413
G1 X18.053 Y3.386
G1 X18.091 Y3.337
G1 X18.105 Y3.277
G1 X18.105 Y2.733
M53

G0 F200
G0 X17.325 Y3.277
M52
G1 F20
G1 X17.325 Y3.277
G1 X17.339 Y3.337
G1 X17.378 Y3.386
G1 X17.434 Y3.413
G1 X17.496 Y3.413
G1 X17.552 Y3.386
G1 X17.591 Y3.337
G1 X17.605 Y3.277
G1 X17.605 Y2.733
G1 X17.591 Y2.672
G1 X17.552 Y2.624
G1 X17.496 Y2.597
G1 X17.434 Y2.597
G1 X17.378 Y2.624
G1 X17.339 Y2.672
G1 X17.325 Y2.733
G1 X17.325 Y3.277
M53

G0 F200
G0 X17.104 Y2.733
M52
G1 F20
G1 X17.104 Y2.733
G1 X17.091 Y2.672
G1 X17.052 Y2.624
G1 X16.996 Y2.597
G1 X16.934 Y2.597
G1 X16.878 Y2.624
G1 X16.839 Y2.672
G1 X16.825 Y2.733
G1 X16.825 Y3.277
G1 X16.839 Y3.337
G1 X16.878 Y3.386
G1 X16.934 Y3.413
G1 X16.996 Y3.413
G1 X17.052 Y3.386
G1 X17.091 Y3.337
G1 X17.104 Y3.277
G1 X17.104 Y2.733
M53

G0 F200
G0 X16.325 Y3.277
M52
G1 F20
G1 X16.325 Y3.277
G1 X16.338 Y3.337
G1 X16.377 Y3.386
G1 X16.433 Y3.413
G1 X16.495 Y3.413
G1 X16.551 Y3.386
G1 X16.590 Y3.337
G1 X16.604 Y3.277
G1 X16.604 Y2.733
G1 X16.590 Y2.672
G1 X16.551 Y2.624
G1 X16.495 Y2.597
G1 X16.433 Y2.597
G1 X16.377 Y2.624
G1 X16.338 Y2.672
G1 X16.325 Y2.733
G1 X16.325 Y3.277
M53

G0 F200
G0 X16.104 Y2.733
M52
G1 F20
G1 X16.104 Y2.733
G1 X16.090 Y2.672
G1 X16.051 Y2.624
G1 X15.995 Y2.597
G1 X15.933 Y2.597
G1 X15.877 Y2.624
G1 X15.838 Y2.672
G1 X15.824 Y2.733
G1 X15.824 Y3.277
G1 X15.838 Y3.337
G1 X15.877 Y3.386
G1 X15.933 Y3.413
G1 X15.995 Y3.413
G1 X16.051 Y3.386
G1 X16.090 Y3.337
G1 X16.104 Y3.277
G1 X16.104 Y2.733
M53

G0 F200
G0 X15.324 Y3.277
M52
G1 F20
G1 X15.324 Y3.277
G1 X15.338 Y3.337
G1 X15.376 Y3.386
G1 X15.432 Y3.413
G1 X15.495 Y3.413
G1 X15.551 Y3.386
G1 X15.589 Y3.337
G1 X15.603 Y3.277
G1 X15.603 Y2.733
G1 X15.589 Y2.672
G1 X15.551 Y2.624
G1 X15.495 Y2.597
G1 X15.432 Y2.597
G1 X15.376 Y2.624
G1 X15.338 Y2.672
G1 X15.324 Y2.733
G1 X15.324 Y3.277
M53

G0 F200
G0 X15.103 Y2.733
M52
G1 F20
G1 X15.103 Y2.733
G1 X15.089 Y2.672
G1 X15.050 Y2.624
G1 X14.994 Y2.597
G1 X14.932 Y2.597
G1 X14.876 Y2.624
G1 X14.837 Y2.672
G1 X14.823 Y2.733
G1 X14.823 Y3.277
G1 X14.837 Y3.337
G1 X14.876 Y3.386
G1 X14.932 Y3.413
G1 X14.994 Y3.413
G1 X15.050 Y3.386
G1 X15.089 Y3.337
G1 X15.103 Y3.277
G1 X15.103 Y2.733
M53

G0 F200
G0 X14.326 Y3.277
M52
G1 F20
G1 X14.326 Y3.277
G1 X14.339 Y3.337
G1 X14.378 Y3.386
G1 X14.434 Y3.413
G1 X14.496 Y3.413
G1 X14.552 Y3.386
G1 X14.591 Y3.337
G1 X14.605 Y3.277
G1 X14.605 Y2.733
G1 X14.591 Y2.672
G1 X14.552 Y2.624
G1 X14.496 Y2.597
G1 X14.434 Y2.597
G1 X14.378 Y2.624
G1 X14.339 Y2.672
G1 X14.326 Y2.733
G1 X14.326 Y3.277
M53

G0 F200
G0 X14.105 Y2.733
M52
G1 F20
G1 X14.105 Y2.733
G1 X14.091 Y2.672
G1 X14.052 Y2.624
G1 X13.996 Y2.597
G1 X13.934 Y2.597
G1 X13.878 Y2.624
G1 X13.839 Y2.672
G1 X13.825 Y2.733
G1 X13.825 Y3.277
G1 X13.839 Y3.337
G1 X13.878 Y3.386
G1 X13.934 Y3.413
G1 X13.996 Y3.413
G1 X14.052 Y3.386
G1 X14.091 Y3.337
G1 X14.105 Y3.277
G1 X14.105 Y2.733
M53

G0 F200
G0 X13.325 Y3.277
M52
G1 F20
G1 X13.325 Y3.277
G1 X13.339 Y3.337
G1 X13.377 Y3.386
G1 X13.433 Y3.413
G1 X13.496 Y3.413
G1 X13.552 Y3.386
G1 X13.590 Y3.337
G1 X13.604 Y3.277
G1 X13.604 Y2.733
G1 X13.590 Y2.672
G1 X13.552 Y2.624
G1 X13.496 Y2.597
G1 X13.433 Y2.597
G1 X13.377 Y2.624
G1 X13.339 Y2.672
G1 X13.325 Y2.733
G1 X13.325 Y3.277
M53

G0 F200
G0 X13.104 Y2.733
M52
G1 F20
G1 X13.104 Y2.733
G1 X13.090 Y2.672
G1 X13.051 Y2.624
G1 X12.995 Y2.597
G1 X12.933 Y2.597
G1 X12.877 Y2.624
G1 X12.838 Y2.672
G1 X12.824 Y2.733
G1 X12.824 Y3.277
G1 X12.838 Y3.337
G1 X12.877 Y3.386
G1 X12.933 Y3.413
G1 X12.995 Y3.413
G1 X13.051 Y3.386
G1 X13.090 Y3.337
G1 X13.104 Y3.277
G1 X13.104 Y2.733
M53

G0 F200
G0 X12.324 Y3.277
M52
G1 F20
G1 X12.324 Y3.277
G1 X12.338 Y3.337
G1 X12.377 Y3.386
G1 X12.433 Y3.413
G1 X12.495 Y3.413
G1 X12.551 Y3.386
G1 X12.590 Y3.337
G1 X12.603 Y3.277
G1 X12.603 Y2.733
G1 X12.590 Y2.672
G1 X12.551 Y2.624
G1 X12.495 Y2.597
G1 X12.433 Y2.597
G1 X12.377 Y2.624
G1 X12.338 Y2.672
G1 X12.324 Y2.733
G1 X12.324 Y3.277
M53

G0 F200
G0 X12.103 Y2.733
M52
G1 F20
G1 X12.103 Y2.733
G1 X12.089 Y2.672
G1 X12.051 Y2.624
G1 X11.994 Y2.597
G1 X11.932 Y2.597
G1 X11.876 Y2.624
G1 X11.838 Y2.672
G1 X11.824 Y2.733
G1 X11.824 Y3.277
G1 X11.838 Y3.337
G1 X11.876 Y3.386
G1 X11.932 Y3.413
G1 X11.994 Y3.413
G1 X12.051 Y3.386
G1 X12.089 Y3.337
G1 X12.103 Y3.277
G1 X12.103 Y2.733
M53

G0 F200
G0 X11.323 Y3.277
M52
G1 F20
G1 X11.323 Y3.277
G1 X11.337 Y3.337
G1 X11.376 Y3.386
G1 X11.432 Y3.413
G1 X11.494 Y3.413
G1 X11.550 Y3.386
G1 X11.589 Y3.337
G1 X11.603 Y3.277
G1 X11.603 Y2.733
G1 X11.589 Y2.672
G1 X11.550 Y2.624
G1 X11.494 Y2.597
G1 X11.432 Y2.597
G1 X11.376 Y2.624
G1 X11.337 Y2.672
G1 X11.323 Y2.733
G1 X11.323 Y3.277
M53

G0 F200
G0 X11.105 Y2.733
M52
G1 F20
G1 X11.105 Y2.733
G1 X11.091 Y2.672
G1 X11.052 Y2.624
G1 X10.996 Y2.597
G1 X10.934 Y2.597
G1 X10.878 Y2.624
G1 X10.839 Y2.672
G1 X10.825 Y2.733
G1 X10.825 Y3.277
G1 X10.839 Y3.337
G1 X10.878 Y3.386
G1 X10.934 Y3.413
G1 X10.996 Y3.413
G1 X11.052 Y3.386
G1 X11.091 Y3.337
G1 X11.105 Y3.277
G1 X11.105 Y2.733
M53

G0 F200
G0 X8.235 Y8.296
M52
G1 F20
G1 X8.235 Y8.296
G1 X8.221 Y8.235
G1 X8.182 Y8.186
G1 X8.126 Y8.159
G1 X8.064 Y8.159
G1 X8.008 Y8.186
G1 X7.969 Y8.235
G1 X7.955 Y8.296
G1 X7.955 Y8.915
G1 X7.969 Y8.976
G1 X8.008 Y9.025
G1 X8.064 Y9.052
G1 X8.126 Y9.052
G1 X8.182 Y9.025
G1 X8.221 Y8.976
G1 X8.235 Y8.915
G1 X8.235 Y8.296
M53

G0 F200
G0 X7.455 Y8.915
M52
G1 F20
G1 X7.455 Y8.915
G1 X7.469 Y8.976
G1 X7.507 Y9.025
G1 X7.564 Y9.052
G1 X7.626 Y9.052
G1 X7.682 Y9.025
G1 X7.720 Y8.976
G1 X7.734 Y8.915
G1 X7.734 Y8.296
G1 X7.720 Y8.235
G1 X7.682 Y8.186
G1 X7.626 Y8.159
G1 X7.564 Y8.159
G1 X7.507 Y8.186
G1 X7.469 Y8.235
G1 X7.455 Y8.296
G1 X7.455 Y8.915
M53

G0 F200
G0 X7.234 Y8.296
M52
G1 F20
G1 X7.234 Y8.296
G1 X7.220 Y8.235
G1 X7.181 Y8.186
G1 X7.125 Y8.159
G1 X7.063 Y8.159
G1 X7.007 Y8.186
G1 X6.968 Y8.235
G1 X6.955 Y8.296
G1 X6.955 Y8.915
G1 X6.968 Y8.976
G1 X7.007 Y9.025
G1 X7.063 Y9.052
G1 X7.125 Y9.052
G1 X7.181 Y9.025
G1 X7.220 Y8.976
G1 X7.234 Y8.915
G1 X7.234 Y8.296
M53

G0 F200
G0 X6.454 Y8.915
M52
G1 F20
G1 X6.454 Y8.915
G1 X6.468 Y8.976
G1 X6.507 Y9.025
G1 X6.563 Y9.052
G1 X6.625 Y9.052
G1 X6.681 Y9.025
G1 X6.720 Y8.976
G1 X6.734 Y8.915
G1 X6.734 Y8.296
G1 X6.720 Y8.235
G1 X6.681 Y8.186
G1 X6.625 Y8.159
G1 X6.563 Y8.159
G1 X6.507 Y8.186
G1 X6.468 Y8.235
G1 X6.454 Y8.296
G1 X6.454 Y8.915
M53

G0 F200
G0 X6.233 Y8.296
M52
G1 F20
G1 X6.233 Y8.296
G1 X6.219 Y8.235
G1 X6.181 Y8.186
G1 X6.125 Y8.159
G1 X6.062 Y8.159
G1 X6.006 Y8.186
G1 X5.968 Y8.235
G1 X5.954 Y8.296
G1 X5.954 Y8.915
G1 X5.968 Y8.976
G1 X6.006 Y9.025
G1 X6.062 Y9.052
G1 X6.125 Y9.052
G1 X6.181 Y9.025
G1 X6.219 Y8.976
G1 X6.233 Y8.915
G1 X6.233 Y8.296
M53

G0 F200
G0 X6.233 Y10.897
M52
G1 F20
G1 X6.233 Y10.897
G1 X6.219 Y10.836
G1 X6.181 Y10.787
G1 X6.125 Y10.760
G1 X6.062 Y10.760
G1 X6.006 Y10.787
G1 X5.968 Y10.836
G1 X5.954 Y10.897
G1 X5.954 Y11.516
G1 X5.968 Y11.577
G1 X6.006 Y11.626
G1 X6.062 Y11.653
G1 X6.125 Y11.653
G1 X6.181 Y11.626
G1 X6.219 Y11.577
G1 X6.233 Y11.516
G1 X6.233 Y10.897
M53

G0 F200
G0 X6.454 Y11.516
M52
G1 F20
G1 X6.454 Y11.516
G1 X6.468 Y11.577
G1 X6.507 Y11.626
G1 X6.563 Y11.653
G1 X6.625 Y11.653
G1 X6.681 Y11.626
G1 X6.720 Y11.577
G1 X6.734 Y11.516
G1 X6.734 Y10.897
G1 X6.720 Y10.836
G1 X6.681 Y10.787
G1 X6.625 Y10.760
G1 X6.563 Y10.760
G1 X6.507 Y10.787
G1 X6.468 Y10.836
G1 X6.454 Y10.897
G1 X6.454 Y11.516
M53

G0 F200
G0 X7.234 Y10.897
M52
G1 F20
G1 X7.234 Y10.897
G1 X7.220 Y10.836
G1 X7.181 Y10.787
G1 X7.125 Y10.760
G1 X7.063 Y10.760
G1 X7.007 Y10.787
G1 X6.968 Y10.836
G1 X6.955 Y10.897
G1 X6.955 Y11.516
G1 X6.968 Y11.577
G1 X7.007 Y11.626
G1 X7.063 Y11.653
G1 X7.125 Y11.653
G1 X7.181 Y11.626
G1 X7.220 Y11.577
G1 X7.234 Y11.516
G1 X7.234 Y10.897
M53

G0 F200
G0 X7.455 Y11.516
M52
G1 F20
G1 X7.455 Y11.516
G1 X7.469 Y11.577
G1 X7.507 Y11.626
G1 X7.564 Y11.653
G1 X7.626 Y11.653
G1 X7.682 Y11.626
G1 X7.720 Y11.577
G1 X7.734 Y11.516
G1 X7.734 Y10.897
G1 X7.720 Y10.836
G1 X7.682 Y10.787
G1 X7.626 Y10.760
G1 X7.564 Y10.760
G1 X7.507 Y10.787
G1 X7.469 Y10.836
G1 X7.455 Y10.897
G1 X7.455 Y11.516
M53

G0 F200
G0 X8.235 Y10.897
M52
G1 F20
G1 X8.235 Y10.897
G1 X8.221 Y10.836
G1 X8.182 Y10.787
G1 X8.126 Y10.760
G1 X8.064 Y10.760
G1 X8.008 Y10.787
G1 X7.969 Y10.836
G1 X7.955 Y10.897
G1 X7.955 Y11.516
G1 X7.969 Y11.577
G1 X8.008 Y11.626
G1 X8.064 Y11.653
G1 X8.126 Y11.653
G1 X8.182 Y11.626
G1 X8.221 Y11.577
G1 X8.235 Y11.516
G1 X8.235 Y10.897
M53

G0 F200
G0 X6.095 Y9.307
M52
G1 F20
G1 X6.095 Y9.307
G1 X6.095 Y10.505
G1 X8.094 Y10.505
G1 X8.094 Y9.307
G1 X6.095 Y9.307
M53

G0 F200
G0 X6.093 Y3.106
M52
G1 F20
G1 X6.093 Y3.106
G1 X6.093 Y4.006
G1 X6.794 Y4.006
G1 X6.794 Y3.106
G1 X6.093 Y3.106
M53

G0 F200
G0 X7.394 Y3.106
M52
G1 F20
G1 X7.394 Y3.106
G1 X7.394 Y4.006
G1 X8.095 Y4.006
G1 X8.095 Y3.106
G1 X7.394 Y3.106
M53

G0 F200
G0 X7.394 Y4.376
M52
G1 F20
G1 X7.394 Y4.376
G1 X7.394 Y5.276
G1 X8.095 Y5.276
G1 X8.095 Y4.376
G1 X7.394 Y4.376
M53

G0 F200
G0 X6.093 Y4.376
M52
G1 F20
G1 X6.093 Y4.376
G1 X6.093 Y5.276
G1 X6.794 Y5.276
G1 X6.794 Y4.376
G1 X6.093 Y4.376
M53

G0 F200
G0 X6.093 Y5.646
M52
G1 F20
G1 X6.093 Y5.646
G1 X6.093 Y6.546
G1 X6.794 Y6.546
G1 X6.794 Y5.646
G1 X6.093 Y5.646
M53

G0 F200
G0 X7.394 Y5.646
M52
G1 F20
G1 X7.394 Y5.646
G1 X7.394 Y6.546
G1 X8.095 Y6.546
G1 X8.095 Y5.646
G1 X7.394 Y5.646
M53

G0 F200
G0 X12.214 Y4.865
M52
G1 F20
G1 X12.214 Y4.865
G1 X12.214 Y9.867
G1 X17.215 Y9.867
G1 X17.215 Y4.865
G1 X12.214 Y4.865
M53

G0 F200

;( End Code )
M53 ; turn off laser
G28 ; home all axes
M84 ; disable motors
